X:1
T:Sir Charles Forbes Bart. of Newe's
T:Sir Charles Forbes Bart. of Newe's
T:Alexander Walker
C:Alexander Walker
L:1/8
Q:1/4=120
M:4/4
K:A
V:1 treble 
V:1
"^Slow, when not danced." F | E<CA>C E2 E>F | E<CA>C B,<BB>c | E<CA>C (E2 E>)c | %4
 d/e/f/g/ a/g/f/e/ c<AA>F | E<CA>C (E2 E>)A | c<Ae>A G<BB>c | (3dfd B>d (3cec A>F | %8
 (3GBG E>G A<A, A, || e | d/c/B/A/ E>A F>A E2 | c>Ae>c f<BB>e |{g} a/g/f/e/ c>e A>ec>A | %13
 (3def (3efg a<AA>e | d/c/B/A/ E>A F>AE>c | d>Bc>A G<BB>d | c<ee>c d/e/f/g/ a>f | %17
{f} e<c{e}d>B c<A A || %18

